static/assets/template/assets/img/icons/clothing/heel.svg

<svg viewBox="0 0 111.72 100.03" xmlns="http://www.w3.org/2000/svg"><path d="m107.34 92c-5.28-13-22.28-23.7-27.83-23.86h-2.09c-1.46 0-2.79 0-5.37 0h-2.48c-5.72 0-14.66-5-21.87-11.93s-22.11-41.69-23.85-47.74c-.92-3.22-2.47-4.47-4.65-4.47-1.93 0-4.35 1-7.28 2.5-6.24 3.2-7.92 13.9-7.92 13.9 0 14.24 4.6 14.92 6.88 29.34 2.12 13.61 3.63 29.13 4.4 38.26h5c.53-10 1.4-25.95 1.56-27.84.24-2.78-.2-3.53 2-4 2.31 0 13.28 28.18 15.85 33.82a9.91 9.91 0 0 0 8 6s23 .06 39.49.06c8.24 0 14.87 0 16.17-.06 3.93-.11 5.11-1.2 3.99-3.98zm-87.47 4 .32-6h-4.75c.3 3.7.46 6 .46 6zm90.93.89c-1.68 2.58-4.79 3-7.31 3.09-1.22 0-6.55.06-16.3.06-16.5 0-39.5-.06-39.5-.06h-.2a13.87 13.87 0 0 1 -11.36-8.28c-.64-1.42-1.74-4.07-3.13-7.42-1.74-4.19-4.91-11.83-7.55-17.6-.45 7.89-1.18 21.42-1.61 29.52a4 4 0 0 1 -4 3.77h-4a4 4 0 0 1 -4-3.71c0-.25-1.74-25.43-5-45.9a52.52 52.52 0 0 0 -3.42-12.49 40.77 40.77 0 0 1 -3.42-17.47 4.21 4.21 0 0 1 0-.62c.25-1.3 2.29-12.78 10.1-16.84 2.96-1.52 6.11-2.94 9.1-2.94 2.37 0 6.63 1 8.47 7.37 1.91 6.66 16.61 40 22.78 46 7.37 7.03 15.21 10.76 19.15 10.79h2.45 3.4 2 2.2c7.89.21 25.84 12.62 31.4 26.35.95 2.49.95 4.61-.25 6.37z" fill-rule="evenodd"/></svg>

<svg xmlns="http://www.w3.org/2000/svg" viewBox="0 0 111.72 100.03"><defs><style>.cls-1{fill-rule:evenodd;}</style></defs><title>heel</title><g id="Layer_2" data-name="Layer 2"><g id="Layer"><path class="cls-1" d="M107.34,92C102.06,79,85.06,68.3,79.51,68.14l-2.09,0c-1.46,0-2.79,0-5.37,0H69.57c-5.72,0-14.66-5-21.87-11.93S25.59,14.52,23.85,8.47C22.93,5.25,21.38,4,19.2,4c-1.93,0-4.35,1-7.28,2.5C5.68,9.7,4,20.4,4,20.4,4,34.64,8.6,35.32,10.88,49.74,13,63.35,14.51,78.87,15.28,88h5c.53-10,1.4-25.95,1.56-27.84.24-2.78-.2-3.53,2-4h0c2.31,0,13.28,28.18,15.85,33.82a9.91,9.91,0,0,0,8,6s23,.06,39.49.06c8.24,0,14.87,0,16.17-.06C107.28,95.87,108.46,94.78,107.34,92ZM19.87,96l.32-6H15.44c.3,3.7.46,6,.46,6Zm90.93.89c-1.68,2.58-4.79,3-7.31,3.09-1.22,0-6.55.06-16.3.06-16.5,0-39.5-.06-39.5-.06h-.2a13.87,13.87,0,0,1-11.36-8.28c-.64-1.42-1.74-4.07-3.13-7.42-1.74-4.19-4.91-11.83-7.55-17.6C25,74.57,24.27,88.1,23.84,96.2a4,4,0,0,1-4,3.77h-4a4,4,0,0,1-4-3.71c0-.25-1.74-25.43-5-45.9A52.52,52.52,0,0,0,3.42,37.87,40.77,40.77,0,0,1,0,20.4a4.21,4.21,0,0,1,0-.62C.25,18.48,2.29,7,10.1,2.94,13.06,1.42,16.21,0,19.2,0c2.37,0,6.63,1,8.47,7.37,1.91,6.66,16.61,40,22.78,46C57.82,60.4,65.66,64.13,69.6,64.16l2.45,0c1.45,0,2.5,0,3.4,0h2c.67,0,1.36,0,2.2,0,7.89.21,25.84,12.62,31.4,26.35C112,93,112,95.12,110.8,96.88Z"/></g></g></svg>
